src/assets/img/email.svg

<svg width="22" height="20" viewBox="0 0 22 20" fill="none" xmlns="http://www.w3.org/2000/svg">
<path fill-rule="evenodd" clip-rule="evenodd" d="M1.75 6.5C1.75 4.89295 2.20538 3.86848 2.88534 3.2371C3.57535 2.59637 4.61497 2.25 6 2.25H16C17.385 2.25 18.4246 2.59637 19.1147 3.2371C19.7946 3.86848 20.25 4.89295 20.25 6.5V13.5C20.25 15.107 19.7946 16.1315 19.1147 16.7629C18.4246 17.4036 17.385 17.75 16 17.75H6C4.61497 17.75 3.57535 17.4036 2.88534 16.7629C2.20538 16.1315 1.75 15.107 1.75 13.5V6.5ZM6 0.75C4.38503 0.75 2.92465 1.15363 1.86466 2.1379C0.79462 3.13152 0.25 4.60705 0.25 6.5V13.5C0.25 15.393 0.79462 16.8685 1.86466 17.8621C2.92465 18.8464 4.38503 19.25 6 19.25H16C17.615 19.25 19.0754 18.8464 20.1353 17.8621C21.2054 16.8685 21.75 15.393 21.75 13.5V6.5C21.75 4.60705 21.2054 3.13152 20.1353 2.1379C19.0754 1.15363 17.615 0.75 16 0.75H6ZM16.4681 7.58602C16.7917 7.32751 16.8445 6.85558 16.586 6.53194C16.3275 6.20829 15.8556 6.15548 15.5319 6.41398L12.4029 8.9132L12.4025 8.9135C11.6461 9.5154 10.3446 9.5155 9.588 8.9139L6.46898 6.41471C6.14574 6.1557 5.67373 6.20778 5.41471 6.53102C5.1557 6.85426 5.20778 7.32627 5.53102 7.58529L8.65101 10.0853L8.65286 10.0868C9.9563 11.1244 12.0337 11.1244 13.3371 10.0868L13.3381 10.086L16.4681 7.58602Z" fill="#00004A"/>
</svg>

<?xml version="1.0" encoding="utf-8"?>
<!-- Generator: Adobe Illustrator 24.1.2, SVG Export Plug-In . SVG Version: 6.00 Build 0)  -->
<svg version="1.2" baseProfile="tiny" id="Layer_1" xmlns="http://www.w3.org/2000/svg" xmlns:xlink="http://www.w3.org/1999/xlink"
	 x="0px" y="0px" viewBox="0 0 22 20" overflow="visible" xml:space="preserve">
<path fill="#00004a" d="M16.6,6.5c-0.3-0.3-0.7-0.4-1.1-0.1l-3.1,2.5C12,9.2,11.5,9.3,11,9.3c-0.5,0-1-0.1-1.4-0.4L6.5,6.4
	C6.1,6.2,5.7,6.2,5.4,6.5C5.2,6.9,5.2,7.3,5.5,7.6l3.1,2.5c0.7,0.5,1.5,0.8,2.4,0.8c0.8,0,1.7-0.3,2.3-0.8l3.2-2.5
	C16.8,7.3,16.9,6.9,16.6,6.5z M20.1,2.2c-1.1-1-2.5-1.4-4.1-1.4H6c-1.6,0-3.1,0.4-4.1,1.4c-1.1,1-1.6,2.5-1.6,4.4v7
	c0,1.9,0.5,3.4,1.6,4.4C3,19,4.4,19.4,6,19.4h10c1.6,0,3.1-0.4,4.1-1.4c1.1-1,1.6-2.5,1.6-4.4v-7C21.7,4.7,21.2,3.2,20.1,2.2z
	 M20.2,13.5c0,1.6-0.5,2.6-1.1,3.3c-0.7,0.6-1.7,1-3.1,1H6c-1.4,0-2.4-0.3-3.1-1c-0.7-0.6-1.1-1.7-1.1-3.3v-7c0-1.6,0.5-2.6,1.1-3.3
	c0.7-0.6,1.7-1,3.1-1h10c1.4,0,2.4,0.3,3.1,1c0.7,0.6,1.1,1.7,1.1,3.3V13.5z M15.5,6.4l-3.1,2.5C12,9.2,11.5,9.3,11,9.3
	c-0.5,0-1-0.1-1.4-0.4L6.5,6.4C6.1,6.2,5.7,6.2,5.4,6.5C5.2,6.9,5.2,7.3,5.5,7.6l3.1,2.5c0.7,0.5,1.5,0.8,2.4,0.8
	c0.8,0,1.7-0.3,2.3-0.8l3.2-2.5c0.3-0.3,0.4-0.7,0.1-1.1C16.3,6.2,15.9,6.1,15.5,6.4z M16.6,6.5c-0.3-0.3-0.7-0.4-1.1-0.1l-3.1,2.5
	C12,9.2,11.5,9.3,11,9.3c-0.5,0-1-0.1-1.4-0.4L6.5,6.4C6.1,6.2,5.7,6.2,5.4,6.5C5.2,6.9,5.2,7.3,5.5,7.6l3.1,2.5
	c0.7,0.5,1.5,0.8,2.4,0.8c0.8,0,1.7-0.3,2.3-0.8l3.2-2.5C16.8,7.3,16.9,6.9,16.6,6.5z"/>
</svg>
